X: 40048
T: Through The Wood, Laddie
R: waltz
M: 3/4
K: Fmajor
FC|D2F2G2|A4f2|d2fd cA|G4FG|A3B AG|A2F2FG|AG AB AG|A2F2C2|
D2F2G2|A4fg|ag fd cA|G4 Bc|d2fd cA|c2dc BA|B2D2E2|F4:|
|:fe|d2f2g2|a4fg|a2ba gf|g4fg|a3b ag|a2f2fg|ag ab ag|a2f2c2|
d2f2g2|a4fg|ag fd cA|G4Bc|d2fd cA|c2dc BA|B2D2E2|F4:|

